src/assets/settings-icon-white.svg

<svg width="29" height="28" viewBox="0 0 29 28" fill="none" xmlns="http://www.w3.org/2000/svg">
<path d="M24.8123 15.4856C24.8686 15.0511 24.9108 14.6167 24.9108 14.1551C24.9108 13.6934 24.8686 13.259 24.8123 12.8245L27.7814 10.5844C28.0488 10.3808 28.1191 10.0142 27.9503 9.71552L25.136 5.01803C24.9671 4.71934 24.5872 4.61073 24.2776 4.71934L20.7738 6.077C20.0421 5.53394 19.2541 5.08591 18.3957 4.7465L17.861 1.14871C17.8188 0.822869 17.5233 0.578491 17.1715 0.578491H11.5429C11.1912 0.578491 10.8956 0.822869 10.8534 1.14871L10.3187 4.7465C9.46036 5.08591 8.67236 5.54751 7.94064 6.077L4.43684 4.71934C4.1132 4.59715 3.74734 4.71934 3.57848 5.01803L0.764186 9.71552C0.581257 10.0142 0.665686 10.3808 0.933044 10.5844L3.90213 12.8245C3.84584 13.259 3.80363 13.707 3.80363 14.1551C3.80363 14.6031 3.84584 15.0511 3.90213 15.4856L0.933044 17.7257C0.665686 17.9293 0.595328 18.2959 0.764186 18.5946L3.57848 23.2921C3.74734 23.5908 4.12727 23.6994 4.43684 23.5908L7.94064 22.2331C8.67236 22.7762 9.46036 23.2242 10.3187 23.5636L10.8534 27.1614C10.8956 27.4872 11.1912 27.7316 11.5429 27.7316H17.1715C17.5233 27.7316 17.8188 27.4872 17.861 27.1614L18.3957 23.5636C19.2541 23.2242 20.0421 22.7626 20.7738 22.2331L24.2776 23.5908C24.6013 23.7129 24.9671 23.5908 25.136 23.2921L27.9503 18.5946C28.1191 18.2959 28.0488 17.9293 27.7814 17.7257L24.8123 15.4856ZM14.3572 18.9068C11.6414 18.9068 9.43222 16.7753 9.43222 14.1551C9.43222 11.5348 11.6414 9.40326 14.3572 9.40326C17.073 9.40326 19.2823 11.5348 19.2823 14.1551C19.2823 16.7753 17.073 18.9068 14.3572 18.9068Z" fill="white"/>
</svg>

<svg width="29" height="28" fill="none" xmlns="http://www.w3.org/2000/svg"><path d="M24.812 15.486c.057-.435.099-.87.099-1.33 0-.463-.042-.897-.099-1.332l2.97-2.24a.669.669 0 00.168-.868l-2.814-4.698c-.169-.299-.549-.407-.858-.299l-3.504 1.358a10.376 10.376 0 00-2.378-1.33l-.535-3.598c-.042-.326-.338-.57-.69-.57h-5.628c-.352 0-.647.244-.69.57l-.534 3.598c-.859.339-1.647.8-2.378 1.33L4.437 4.719a.698.698 0 00-.859.299L.764 9.716a.654.654 0 00.169.868l2.97 2.24c-.057.435-.1.883-.1 1.331 0 .448.043.896.1 1.33l-2.97 2.24a.669.669 0 00-.169.87l2.814 4.697c.17.299.55.407.859.299l3.504-1.358c.731.543 1.52.991 2.378 1.33l.534 3.598c.043.326.338.57.69.57h5.629c.351 0 .647-.244.689-.57l.535-3.597a10.91 10.91 0 002.378-1.33l3.504 1.357c.323.122.69 0 .858-.299l2.814-4.697a.669.669 0 00-.169-.87l-2.969-2.24zm-10.455 3.42c-2.716 0-4.925-2.13-4.925-4.75 0-2.621 2.21-4.753 4.925-4.753 2.716 0 4.925 2.132 4.925 4.752 0 2.62-2.209 4.752-4.925 4.752z" fill="#fff"/></svg>
